X:1
T:Je croy le feu
T:Maille
T:Source : Livre X de 28 chansons nouvelles à 4 parties---Paris---P.Attaingnant---1541. Editor : André Vierendeels (23/05/18). Notes : Original clefs : C1, C3, C4, F4 Original note values have been halved Editorial accidentals above the staff
T:Je croy le feu
T:©
T:©
T:©
C:Maille
Z:©
%%score [ 1 2 3 4 ]
L:1/8
Q:1/4=120
M:2/2
K:C
V:1 treble nm="Soprano" snm="S"
V:2 treble-8 nm="Alto" snm="A"
V:3 treble-8 nm="Tenor" snm="T"
V:4 bass nm="Bass" snm="B"
V:1
 G4 G2 G2 | AGAB c2 c2 | cBcd e2 e2 | d2 c4 B2 | c4 c4 | B2 B2 A2 d2 | dcBA B2 c2 | cBAG ABcB | %8
w: Je croy le|feu _ _ _ _ plus|grant _ _ _ _ que|vous ne dic-|tes, et|vo- stre cueur es-|pris _ _ _ _ et|con- * * * * * * *|
w: Car re- cep-|vant _ _ _ _ tant|de _ _ _ _ flam-|mes pe- ti-|tes, ung|bien grand feu si|peult _ _ _ _ es-|tre'al- * * * * * * *|
"^#" AG G4 F2 |[M:2/4] G4 :|[M:2/2] G4 G2 G2 | FEFG A2 A2 | A2 B2 cBAG | FE A4 G2 | A4 z2 A2 | %15
w: * * * su-|mé,|mais moins tour-|men- * * * * te'ung|mal ac- cous- * * *|* * * tu-|mé, quant|
w: * * * lu-|mé,||||||
 G2 F2 E2 A2 | A2 A2 cBAG | A2 G4 F2 | G4 c4 | B2 B2 A2 GF | E2 A2 A2 A2 | G2 FE F2 F2 | E4 G4 | %23
w: est de moy, le|temps et mon _ _ _|_ mal- *|heur, ont|si es- taint _ _|_ et moy, et|ma _ _ _ va-|leur, que|
w: ||||||||
 A2 B2 cBcd | e2 c2 e2 e2 | d2 c4 B2 | c4 c4 | c2 B2 AGAB | c2 c2 B2 A2 | G2 A4 GF | E4 z4 |: %31
w: ie ne voy _ _ _|_ feu qui me|sceut es- pren-|dre, et|quant le vo- * * *|* stre'au- roit plus|de cha- * *|leur,|
w: ||||||||
 G4 G2 G2 | FEFG A2 A2 | A2 A2 cBAG | A2 G4 F2 | G8 :| %36
w: com- me pour-|roit _ _ _ _ s'al-|lu- mer u- * * *|* ne cen-|dre.|
w: |||||
V:2
 D4 E2 E2 | F4 z2 G2 | G6 G2 | A2 F2 G4 | E4 G4 | G2 G2 F4- | F2 D2 G3 F | ED E2 C2 F2- | %8
w: Je croy le|feu plus|grant que|vous ne dic-|tes, et|vo- stre cueur|_ es- pris _|_ _ et con- *|
w: Car re- cep-|vant tant|de flam-|mes pe- ti-|tes, ung|bien grand feu|_ si peult _|_ _ _ es- tre'al-|
 F2 C2 D4 |[M:2/4] B,4 :|[M:2/2] E4 E2 C2 | D4 D2 D2 | C2 E2 EDCB, | A,2 F2 E4 | C4 z2 E2 | %15
w: * * su-|mé,|mais moins tour-|men- te'ung mal|ac- * cous- * * *|* * tu-|mé, quant|
w: * * lu-|mé,||||||
 E2 D2 C4 | z2 C2 C2 D2 | E2 C2 D4 | z2 G,2 G,4 | G,4 A,2 A,2 | C3 D E2 E2- | ED C4 B,2 | C4 E4 | %23
w: est de moy,|le temps et|mon mal- heur,|ont si|es- taint et|moy, _ _ et|_ _ ma va-|leur, que|
w: ||||||||
 F2 F2 G2 C2 | G2 A2 G4- | G2 F2 G4 | E4 z2 E2 | F2 D2 F4 | G2 G2 G2 F2 | E2 C4 B,2 | C4 z4 |: %31
w: ie ne voy feu|qui me sceut|_ es- pren-|dre, et|quant le vo-|* stre'au- roit plus|de cha- *|leur,,|
w: ||||||||
 E4 E2 DC | D2 D2 C2 C2 | D2 D2 E2 F2- | F2 C2 D4 |"^#" D8 :| %36
w: com- me _ _|_ pour- roit s'al-|lu- mer u- ne|_ cen- *|dre.|
w: |||||
V:3
 G4 c2 c2 | ABcd e2 e2 | e6 e2 | fe dc d4 | c4 e4 | d2 d2 d4 | d2 dc BA G2 | c2 cB AGAB | %8
w: Je croy le|feu _ _ _ _ plus|grant que|vous _ ne _ dic-|tes, et|vo- stre cueur|es- pris _ _ _ _|et con- * * * * *|
w: Car re- cep-|vant _ _ _ _ tant|de flam-|mes _ pe- * ti-|tes, ung|bien grand feu|si peult _ _ _ _|es- tre'al- * * * * *|
 cBAG A2 A2 |[M:2/4] G4 :|[M:2/2] z2 c2 B2 G2 | A4 D2 D2 | A2 G2 A3 B | c2 d2 B4 | A4 z2 c2 | %15
w: * * * * * su-|mé,|mais moins tour-|men- te'ung mal|ac- cous- * *|* * tu-|mé, quant|
w: * * * * * lu-|mé,||||||
 c2 A2 A4 | z2 A2 A2 A2 | cBAG A2 A2 | G2 c2 e2 e2 | d2 G2 c4 | z2 A2 c2 c2 | B2 G4 F2 | G4 c4 | %23
w: est de moy,|le temps et|mon _ _ _ _ mal-|heur, ont si es-|taint et moy,|et moy, et|ma va- *|leur, que-|
w: ||||||||
 c2 d2 e2 A2 | c6 c2 | B2 c2 d4 | c4 z2 G2 | A2 B2 c3 d | e2 e2 d3 c | B2 A2 F4 | G4 z4 |: %31
w: ie ne voy feu|qui me|sceut es- pren-|dre, et|quant le vo _|_ stre'au- roit plus|de _ cha-|leur,|
w: ||||||||
 c4 B2 G2 | A2 A2 A2 A2 | F2 F2 A3 B | cBAG A4 | G8 :| %36
w: com- me pour-|roit s'al- lu- mer|u- ne cen- *||dre.-|
w: |||||
V:4
 G,4 C,2 C,2 | F,3 E,/D,/ C,4 | z2 C,2 C,2 C,2 | F,2 A,2 G,4 | C,4 z2 C,2 | G,2 G,2 D,4 | %6
w: Je croy le|feu _ _ _|plus grand que|vou ne dic-|tes, et|vo- stre cueur|
w: Car re- cep-|vant _ _ _|tant de flam-|mes pe- ti-|tes, ung|bien grand feu|
 D,2 G,3 F,E,D, | C,2 C,2 F,4- | F,2 E,2 D,4 |[M:2/4] G,,4 :|[M:2/2] C,4 E,2 E,2 | D,3 E, F,4- | %12
w: es- pris _ _ _|_ et con-|* * su-|mé,|mais moins tour-|men _ _|
w: si peult _ _ _|_ es- tre'al-|* * lu-|me,|||
 F,2 E,2 A,,2 F,2 | F,2 E,D, E,2 E,2 | A,,4 z2 A,,2 | C,2 D,2 A,,4 | F,4 F,2 F,2 | C,2 E,2 D,4 | %18
w: _ te'ung mal ac-|cous- * * * tu-|mé, quant|est de moy,|le temps et|mon mal- heur,|
w: ||||||
 z2 C,2 C,D,E,F, | G,2 E,2 F,E,F,G, | A,2 A,,2 A,,2 A,,2 | E,4 D,4 | C,4 C,4 | F,2 D,2 C,2 F,2 | %24
w: ont si _ _ _|_ es- taint _ _ _|_ et moy et|ma va-|leur, que|ie ne voy feu|
w: ||||||
 E,2 F,2 C,D,E,F, | G,2 A,2 G,4 | C,4 z2 C,2 | F,2 G,2 F,3 E,/D,/ | C,D,E,F, G,2 D,2 | %29
w: qui me sceut _ _ _|_ es- pren-|dre, et|quant le vo- * *|* * * * * stre'au-|
w: |||||
 E,2 A,,2 D,2 D,2 | C,4 z4 |: C,4 E,2 E,2 | D,2 D,2 F,3 E, | D,2 D,2 A,,2 F,2- | F,2 E,2 D,4 | %35
w: roit plus de cha-|leur,|com- me pour-|roit s'al- lu- mer|u- ne cen- *||
w: ||||||
 G,,8 :| %36
w: dre.|
w: |

